images/delsvg/property1.svg

<svg width="270" height="120" viewBox="0 0 270 120" fill="none" xmlns="http://www.w3.org/2000/svg">
<rect width="270" height="120" rx="4" fill="#F5F4FA"/>
<path d="M167.316 73.3385L148.847 54.7337L150.897 44.6373C151.426 44.8438 151.988 44.9517 152.556 44.9558H152.57C155.178 44.9866 157.317 42.8974 157.348 40.2893C157.379 37.6812 155.289 35.542 152.681 35.5111C150.073 35.4803 147.934 37.5695 147.903 40.1776C147.897 40.7357 147.989 41.2905 148.176 41.8163L137.326 43.1405L119.628 25.35C119.41 25.1285 119.114 25.0025 118.804 25C118.498 25.0016 118.204 25.1235 117.987 25.3395L114.679 28.6295C114.223 29.0851 114.223 29.8236 114.679 30.2792L116.459 32.0852C109.562 44.7681 111.802 60.4741 121.97 70.7228C122.064 70.8121 122.172 70.8843 122.29 70.9363C122.216 71.3311 122.178 71.7317 122.176 72.1333V85.6667H108.176C104.956 85.6705 102.346 88.28 102.342 91.5V93.8333C102.342 94.4776 102.865 95 103.509 95H157.176C157.82 95 158.342 94.4776 158.342 93.8333V91.5C158.338 88.28 155.729 85.6705 152.509 85.6667H138.509V79.6688C140.702 80.1288 142.937 80.3633 145.178 80.3688C150.555 80.363 155.846 79.0225 160.578 76.4675L162.367 78.2677C162.584 78.4892 162.881 78.6152 163.191 78.6177C163.497 78.6161 163.79 78.4941 164.008 78.2782L167.316 74.9882C167.772 74.5326 167.772 73.7941 167.316 73.3385ZM150.925 38.6348C151.838 37.726 153.316 37.7301 154.224 38.6437C155.133 39.5574 155.129 41.0348 154.215 41.9435C153.778 42.3785 153.186 42.6226 152.569 42.6225H152.562C151.274 42.6158 150.235 41.5658 150.241 40.2771C150.244 39.6602 150.492 39.0699 150.929 38.6348H150.925ZM148.178 46.301L146.869 52.7445L144.298 50.158L148.178 46.301ZM146.853 44.3282L142.653 48.5037L139.404 45.237L146.853 44.3282ZM152.509 88C154.442 88 156.009 89.567 156.009 91.5V92.6667H104.676V91.5C104.676 89.567 106.243 88 108.176 88H152.509ZM136.176 83.3333V85.6667H124.509V83.3333H136.176ZM124.509 81V72.1333C124.509 69.303 127.126 67 130.342 67C133.559 67 136.176 69.303 136.176 72.1333V81H124.509ZM138.509 77.29V72.1333C138.509 68.0162 134.846 64.6667 130.342 64.6667C127.431 64.622 124.708 66.1041 123.165 68.5738C114.289 59.2249 112.29 45.2875 118.181 33.8207L158.872 74.7455C152.589 77.9419 145.386 78.8418 138.509 77.29ZM163.204 75.7943L161.56 74.1412L118.792 31.1157L117.141 29.4613L118.792 27.8163L136.15 45.272C136.158 45.272 136.163 45.2872 136.171 45.293L164.859 74.1493L163.204 75.7943Z" fill="#212121"/>
<path d="M130.353 69.3333H130.342C128.409 69.3304 126.84 70.895 126.837 72.8281C126.834 74.7611 128.399 76.3304 130.332 76.3333H130.342C132.275 76.3362 133.845 74.7716 133.848 72.8386C133.85 70.9055 132.286 69.3362 130.353 69.3333ZM131.169 73.6605C130.95 73.8789 130.652 74.0012 130.342 74C129.698 73.9966 129.178 73.4716 129.182 72.8273C129.183 72.5189 129.307 72.2237 129.526 72.0062C129.743 71.7902 130.036 71.6683 130.342 71.6667C130.987 71.67 131.506 72.195 131.503 72.8393C131.501 73.1477 131.378 73.4429 131.159 73.6605H131.169Z" fill="#2196F3"/>
</svg>

<svg xmlns="http://www.w3.org/2000/svg" width="270" height="120" fill="none"><rect width="270" height="120" fill="#F5F4FA" rx="4"/><path fill="#212121" d="m167.316 73.338-18.469-18.604 2.05-10.097a4.654 4.654 0 0 0 1.659.319h.014a4.723 4.723 0 1 0-4.394-3.14l-10.85 1.325-17.698-17.791a1.17 1.17 0 0 0-.824-.35c-.306.002-.6.123-.817.34l-3.308 3.29a1.166 1.166 0 0 0 0 1.65l1.78 1.805c-6.897 12.683-4.657 28.39 5.511 38.638.094.09.202.161.32.213a6.677 6.677 0 0 0-.114 1.197v13.534h-14a5.841 5.841 0 0 0-5.834 5.833v2.333c0 .645.523 1.167 1.167 1.167h53.667c.644 0 1.166-.522 1.166-1.167V91.5a5.84 5.84 0 0 0-5.833-5.833h-14v-5.998c2.193.46 4.428.694 6.669.7a32.486 32.486 0 0 0 15.4-3.901l1.789 1.8c.217.221.514.347.824.35a1.17 1.17 0 0 0 .817-.34l3.308-3.29a1.166 1.166 0 0 0 0-1.65Zm-16.391-34.703a2.332 2.332 0 1 1 1.644 3.988h-.007a2.334 2.334 0 0 1-1.633-3.988h-.004Zm-2.747 7.666-1.309 6.444-2.571-2.587 3.88-3.857Zm-1.325-1.973-4.2 4.176-3.249-3.267 7.449-.909ZM152.509 88a3.5 3.5 0 0 1 3.5 3.5v1.167h-51.333V91.5a3.5 3.5 0 0 1 3.5-3.5h44.333Zm-16.333-4.667v2.334h-11.667v-2.334h11.667ZM124.509 81v-8.867c0-2.83 2.617-5.133 5.833-5.133 3.217 0 5.834 2.303 5.834 5.133V81h-11.667Zm14-3.71v-5.157c0-4.117-3.663-7.466-8.167-7.466a8.313 8.313 0 0 0-7.177 3.907 30.339 30.339 0 0 1-4.984-34.753l40.691 40.925a30.232 30.232 0 0 1-20.363 2.544Zm24.695-1.496-1.644-1.653-42.768-43.025-1.651-1.655 1.651-1.645 17.358 17.456c.008 0 .013.015.021.021l28.688 28.856-1.655 1.645Z"/><path fill="#2196F3" d="M130.353 69.333h-.011a3.5 3.5 0 1 0-.01 7h.01a3.5 3.5 0 0 0 .011-7Zm.816 4.328a1.165 1.165 0 1 1-1.643-1.655c.217-.216.51-.338.816-.34a1.167 1.167 0 0 1 .817 1.995h.01Z"/></svg>
